X: 14955
T: Geese In The Bog, The
R: jig
M: 6/8
K: Adorian
B|cEE GEE|cEE GAB|cEE GED|EAA A2B|
cEE GEE|cEE GAB|cBA GED|EAA A2:|:B|
cde ged|eaf ged|cde ged|eag ~a3|
cde ged|eaf ged|cBA GED|EAA A2:|

